!!!!SEGMENT: pl-kk--kk-i-481--001_zangl-johann-baptist--msza-czteroglosowa-kyrie.krn
!!!cenid: 18xx:1429
!!!COM: Zangl, Johann Baptist
!!!COM-rismID:
!!!CDT: 1821-1897
!!!CNT: Austrian; Italian
!!!OPR: Msza czterogłosowa
!!!OTL: Kyrie
!!!OMV: 001
!!!PDT:
!!!AGN: Sacred; Mass
!!!SMS-siglum: PL-Kk
!!!SMS-shelfmark: Kk.I.481
!!!SMS-shelfwork: 001-001 M
!!!SMS-variant: Tenor I PL-Kk KK.I.481:0001; Tenor II PL-Kk KK.I.481:0009; Bas I PL-Kk KK.I.481:0017; Bas II PL-Kk KK.I.481:0031
!!!SMS-altvar: Tenor I PL-Kk KK.I.481:0005; Tenor II PL-Kk KK.I.481:0013; Bas I PL-Kk KK.I.481:0021; Bas II PL-Kk KK.I.481:0026; Partytura PL-Kk KK.I.481:0033; Partytura PL-Kk KK.I.481:0039
!!!NIFC-rismSourceID: 1001140261
!!!NIFC-islandoraID: pl-kk:14352
!!!URL-pdf-islandora: https://repozytorium.nifc.pl/islandora/object/pl-kk%3A14352/datastream/PDF/view
!!!URL-scan: https://polish.musicsources.pl/pl/lokalizacje/galeria/rekopisy/6088 @EN{Scan on Polish Music Herritage in Open Access Website} @PL{Skany w portalu Dziedzictwo Muzyki Polskiej w otwartym dostępie}
!!!ONB-nifc: UWAGA: na podstawie głosów.
!!!AIN: 2 empty 2 tenor
!!!key:
**kern	**text	**kern	**text	**kern	**text	**dynam	**kern	**text	**dynam
*part4	*part4	*part3	*part3	*part2	*part2	*part2	*part1	*part1	*part1
*staff4	*staff4	*staff3	*staff3	*staff2	*staff2	*	*staff1	*staff1	*
*Iempty	*	*Iempty	*	*Itenor	*	*	*Itenor	*	*
*I"Bas II	*	*I"Bas I	*	*I"Tenor II	*	*	*I"Tenor I	*	*
*I'B 2	*	*I'B 1	*	*I'T 2	*	*	*I'T 1	*	*
*clefF4	*	*clefF4	*	*clefG2	*	*	*clefG2	*	*
*	*	*	*	*ITrd7c12	*	*	*ITrd7c12	*	*
*k[f#]	*	*k[f#]	*	*k[f#]	*	*	*k[f#]	*	*
*G:	*	*G:	*	*G:	*	*	*G:	*	*
*M3/4	*	*M3/4	*	*M3/4	*	*	*M3/4	*	*
=1	=1	=1	=1	=1	=1	=1	=1	=1	=1
!	!	!	!	!	!	!	!LO:TX:t=P:problem=głos zapisany w zwykłym kluczu wiolinowym	!	!
!LO:TX:a:t=P:problem=napis "Kyrie" na pięciolinii przed kluczem	!	!LO:TX:B:b:t=Kyrie	!	!LO:TX:t=P:problem=głos zapisany w zwykłym kluczu wiolinowym	!	!	!LO:TX:B:b:t=Kyrie	!	!
!LO:TX:B:b:t=Kyrie	!	!LO:TX:a:t=P:problem=napis "Kyrie" przed kluczem	!	!	!	!	!LO:TX:i:a:t=Moderato	!	!
!LO:TX:i:a:t=Moderato	!	!LO:TX:i:a:t=Moderato	!	!LO:TX:i:a:t=Moderato	!	!	!LO:TX:a:t=P:problem=napis "Kyrie" na pięciolinii przed kluczem	!	!
(<4GG/	Ky-	2G\	Ky-	2G/	Ky-	.	(>4B\	Ky-	.
4BB/)	.	.	.	.	.	.	4d\)	.	.
4C/	-ri-	4G\	-ri-	4G/	-ri-	.	4e\	-ri-	.
=2	=2	=2	=2	=2	=2	=2	=2	=2	=2
2D\	-e	2D\	-e	(<4G/	-e	.	2A/	-e	.
.	.	.	.	4F#/)	.	.	.	.	.
4BB/	e-	4D\	e-	4G/	e-	.	4B\	e-	.
=3	=3	=3	=3	=3	=3	=3	=3	=3	=3
4AA/	-lei-	4E\	-lei-	4A/	-lei-	.	4c\	-lei-	.
4C/	-son	4E\	-son	4A/	-son	.	4c\	-son	.
!	!	!LO:TX:t=P:problem=skreślenie ołówkiem na dźwięk E	!	!	!	!	!	!	!
4C#X/	e-	4C#X/	e-	4G/	e-	.	4B\	e-	.
=4	=4	=4	=4	=4	=4	=4	=4	=4	=4
4D\	-lei-	4D\	-lei-	4G/	-lei-	.	4B\	-lei-	.
4D\	-son	4D\	-son,	4F#/	-son,	.	4A/	-son	.
4r	.	4r	.	4r	.	.	4r	.	.
=5	=5	=5	=5	=5	=5	=5	=5	=5	=5
(>4GG/	Ky-	2G\	Ky-	2G/	Ky-	.	(>4B\	Ky-	.
4BB/)	.	.	.	.	.	.	4d\)	.	.
4C/	-ri-	4G\	-ri-	4G/	-ri-	.	4e\	-ri-	.
=6	=6	=6	=6	=6	=6	=6	=6	=6	=6
2D\	-e	(>4D/	-e	(<4G/	-e	.	(>4A/	-e	.
.	.	4F#\)	.	4F#/)	.	.	4d\)	.	.
4C#X/	e-	4A\	e-	4A/	e-	.	4e\	e-	.
=7	=7	=7	=7	=7	=7	=7	=7	=7	=7
4Cn/	-lei-	4A\	-lei-	4d\	-lei-	.	4f#\	-lei-	.
4BB/	-son	4G\	-son	4d\	-son	.	4.g\	-son	.
4D\	e-	4A\	e-	4d\	e-	.	.	.	.
.	.	.	.	.	.	.	8f#\	e-	.
!LO:LB:g=original	!	!	!	!	!	!	!LO:LB:g=original	!	!
=8	=8	=8	=8	=8	=8	=8	=8	=8	=8
4AA/	-lei-	4G\	-lei-	4c#X\	-lei-	.	4e\	-lei-	.
4D\	-son	4F#\	-son	4d\	-son,	.	4d\	-son	.
4r	.	4r	.	4r	.	.	4r	.	.
!	!	!LO:LB:g=original	!	!	!	!	!	!	!
=9	=9	=9	=9	=9	=9	=9	=9	=9	=9
4r	.	4r	.	2B\	Ky-	.	(>4d\	Ky-	.
4r	.	4r	.	.	.	.	4e\)	.	.
8.E\	Ky-	8.G#X\	Ky-	4B\	-ri-	.	4B\	-ri-	.
16E\	-ri-	16G#\	-ri-	.	.	.	.	.	.
!	!	!	!	!LO:LB:g=original	!	!	!	!	!
=10	=10	=10	=10	=10	=10	=10	=10	=10	=10
4.A\	-e	4A\	-e	4c\	-e,	.	4c\	-e	.
.	.	4r	.	4r	.	.	4r	.	.
8Gn\	e-	.	.	.	.	.	.	.	.
8F#\L	-lei-	4r	.	4r	.	.	4r	.	.
8E\J	.	.	.	.	.	.	.	.	.
=11	=11	=11	=11	=11	=11	=11	=11	=11	=11
4D\ 4F#	-son	4r	.	2A/	Ky-	.	(>4c\	Ky-	.
4r	.	4r	.	.	.	.	4d\)	.	.
!LO:N:n=2:vis=8	!	!	!	!	!	!	!	!	!
8.D\ 8.F#	Ky-	8.F#\	Ky-	4A/	-ri-	.	4A/	-ri-	.
16D\	-ri-	16F#\	-ri-	.	.	.	.	.	.
=12	=12	=12	=12	=12	=12	=12	=12	=12	=12
4.G\	-e	4G\	-e	4B\	-e	.	4B\	-e	.
.	.	4r	.	4r	.	.	4r	.	.
8F#\	e-	.	.	.	.	.	.	.	.
8E\	-lei-	4r	.	4r	.	.	4r	.	.
8D\	-son	.	.	.	.	.	.	.	.
=13	=13	=13	=13	=13	=13	=13	=13	=13	=13
4C/	Chri-	4G\	Chri-	4c\	Chri-	.	4e\	Chri-	.
4BB/	-ste	4G\	-ste	4d\	-ste	.	4g\	-ste	.
8r	.	8r	.	8r	.	.	8r	.	.
8BB/	e-	8G\	e-	8G/	e-	.	8d\	e-	.
=14	=14	=14	=14	=14	=14	=14	=14	=14	=14
4D\	-lei-	4F#\	-lei-	4A/	-lei-	.	4c\	-lei-	.
!	!	!LO:TX:t=P:problem=skreślenie ołówkiem na dźwięk G	!	!	!	!	!	!	!
4E\	-son	4E\	-son	4G/	-son,	.	4B\	-son,	.
4r	.	4r	.	4r	.	.	4r	.	.
!LO:LB:g=original	!	!	!	!	!	!	!	!	!
=15	=15	=15	=15	=15	=15	=15	=15	=15	=15
4E\	Chri-	4G\	Chri-	4B\	Chri-	.	4e\	Chri-	.
4D#X\	-ste	4A\	-ste	4B\	-ste	.	4f#\	-ste	.
8r	.	8r	.	8r	.	.	8r	.	.
8E\	e-	8G\	e-	8B\	e-	.	8e\	e-	.
=16	=16	=16	=16	=16	=16	=16	=16	=16	=16
4F#\	-lei-	4A\	-lei-	4B\	lei-	.	4d#X\	-lei-	.
4E\	-son	4G\	-son,	4B\	-son,	.	4e\	-son	.
4D\	Chri-	4G\	Chri-	4B\	Chri-	.	4e\	Chri-	.
!	!	!LO:LB:g=original	!	!	!	!	!LO:LB:g=original	!	!
=17	=17	=17	=17	=17	=17	=17	=17	=17	=17
4.C#X/	-ste	4.G\	-ste	4.A/	-ste	.	4.e\	-ste	.
8D\	e-	8F#\	e-	8A/	e-	.	8d\	e-	.
!	!	!LO:TX:t=P:problem=skreślenie ołówkiem na dźwięk E	!	!	!	!	!	!	!
8E\L	-lei-	(>8G\L	-lei-	4A/	-lei-	.	(>8c#X\L	-lei-	.
8D\J	.	8F#\J)	.	.	.	.	8d\J)	.	.
=18	=18	=18	=18	=18	=18	=18	=18	=18	=18
!LO:N:vis=2.	!	!	!	!	!	!	!	!	!
2AA/	-son	2G\	-son	2c#X\	-son	.	(>8e\L	-son	.
.	.	.	.	.	.	.	8d#X\	.	.
.	.	.	.	.	.	.	8e\	.	.
.	.	.	.	.	.	.	8f#\J)	.	.
4AA/	e-	(>8E\L	e-	4c#\	e-	.	8g\L	e-	.
.	.	8G\J)	.	.	.	.	8e\J	.	.
!LO:TX:a:t=P:problem=znak "x" nad kreską	!	!	!	!	!	!	!	!	!
!	!	!	!	!LO:LB:g=original	!	!	!	!	!
=19	=19	=19	=19	=19	=19	=19	=19	=19	=19
2.AA/	-lei-	4F#\	-lei-	2.A/	-lei-	.	2dn\	-lei-	.
.	.	(>8G\L	.	.	.	.	.	.	.
.	.	8F#\J)	.	.	.	.	.	.	.
.	.	(>8E\L	.	.	.	.	4c#X\	.	.
.	.	8G\J)	.	.	.	.	.	.	.
=20	=20	=20	=20	=20	=20	=20	=20	=20	=20
4D\	-son	4F#\	-son	4A/	-son	.	4d\	-son	.
4r	.	4r	.	4r	.	.	4r	.	.
4D\	e-	4F#\	e-	4A/	e-	.	4d\	e-	.
=21	=21	=21	=21	=21	=21	=21	=21	=21	=21
2.E\	-lei-	2.G\	-lei-	2.A/	-lei-	.	(>4.d\	-lei-	.
.	.	.	.	.	.	.	8c#X\L	.	.
.	.	.	.	.	.	.	8B\	.	.
.	.	.	.	.	.	.	8c#\J)	.	.
=22	=22	=22	=22	=22	=22	=22	=22	=22	=22
4F#\	-son	4A\	-son	4A/	-son	.	4d\	-son	.
(>4E\	e-	(>4G\	e-	4r	.	.	4r	.	.
4D\)	.	4F#\)	.	4r	.	.	4r	.	.
=23	=23	=23	=23	=23	=23	=23	=23	=23	=23
2.AA/	lei-	2.A\	-lei-	(>4.d\	Ky-	.	2e\	Ky-	.
.	.	.	.	8c#X\)	.	.	.	.	.
.	.	.	.	(>8B\L	-ri-	.	4e\	-ri-	.
.	.	.	.	8c#\J)	.	.	.	.	.
!LO:LB:g=original	!	!	!	!	!	!	!	!	!
=24	=24	=24	=24	=24	=24	=24	=24	=24	=24
4D\	-son	4A\	-son	4d\	-e	.	4f#\	-e	.
4r	.	4r	.	4r	.	.	4r	.	.
4D\	e-	4F#\	e-	4A/	e-	.	4d\	e-	.
=25	=25	=25	=25	=25	=25	=25	=25	=25	=25
2.E\	-lei-	2.G\	-lei-	2.A/	-lei-	.	4.d\	-lei-	.
.	.	.	.	.	.	.	(>8c#X\L	.	.
.	.	.	.	.	.	.	8B\	.	.
.	.	.	.	.	.	.	8c#\J)	.	.
!	!	!	!	!	!	!	!LO:LB:g=original	!	!
=26	=26	=26	=26	=26	=26	=26	=26	=26	=26
(>4F#\	-son	(>4A\	-son	2.A/	-son.	.	4d\	-son	.
4E\	.	4G\	.	.	.	.	4r	.	.
4D\)	.	4F#\)	.	.	.	.	4r	.	.
!	!	!LO:LB:g=original	!	!	!	!	!	!	!
=27	=27	=27	=27	=27	=27	=27	=27	=27	=27
2.C#X/	Chri-	2F#\	Chri-	2A#X/	Chri-	.	4.e\	Chri-	.
.	.	.	.	.	.	.	8g\	.	.
.	.	4F#\	-ste	4A#/	-ste	.	8f#\L	-ste	.
.	.	.	.	.	.	.	8e\J	.	.
=28	=28	=28	=28	=28	=28	=28	=28	=28	=28
2BB/	-ste	(>2F#\	e-	2.B\	e-	.	(>2d\	e-	.
4GG/	e-	4G\)	.	.	.	.	4e\)	.	.
=29	=29	=29	=29	=29	=29	=29	=29	=29	=29
2AA/	-lei-	(>8F#\L	-lei-	(<4An/	-lei-	.	2A/	-lei-	.
.	.	8E\	.	.	.	.	.	.	.
.	.	8D\	.	4F#/)	.	.	.	.	.
.	.	8E\J)	.	.	.	.	.	.	.
4AA/	-son,	(>8F#\L	-son	4A/	-son	.	4A/	-son	.
.	.	8G\J)	.	.	.	.	.	.	.
!	!	!	!	!LO:LB:g=original	!	!	!	!	!
=30	=30	=30	=30	=30	=30	=30	=30	=30	=30
2AA/	Ky-	4F#\	e-	4A/	e-	.	4A/	e-	.
.	.	4Fn\	-le-	(<4G#X/	-lei-	.	(>4B\	-lei-	.
4AA/	-ri-	4E\	-i-	4Gn/)	.	.	4c#X\)	.	.
=31	=31	=31	=31	=31	=31	=31	=31	=31	=31
4D\	-e,	4D\	-son	4F#/	-son	.	4d\	-son	.
4D\	Ky-	4r	.	4r	.	.	4r	.	.
4D\	-ri-	4r	.	4r	.	.	4r	.	.
=32	=32	=32	=32	=32	=32	=32	=32	=32	=32
!	!	!	!	!	!	!	!LO:TX:a:t=4.	!	!
!	!	!	!	!	!	!	!LO:TX:a:t=P:problem=belka jako wielotaktowa pauza	!	!
2D\	-e	(>4B\	Ky-	(>4d\	Ky-	.	2.r	.	.
.	.	4G#X\)	.	4e\)	.	.	.	.	.
4D\	e-	4B\	-ri-	4d\	-ri-	.	.	.	.
=33	=33	=33	=33	=33	=33	=33	=33	=33	=33
!	!	!LO:TX:a:t=P:problem=w źródle najpierw krzyżyk potem kasownik	!	!	!	!	!	!	!
!	!	!LO:N:acc=n#	!	!	!	!	!	!	!
4E\	-lei-	2Gn#\	-e	(>4.d\	-e	.	2.r	.	.
4E\	-son	.	.	.	.	.	.	.	.
!	!	!	!	!LO:TX:a:t=P:problem=w źródle dopisany kasownik ołówkiem	!	!	!	!	!
.	.	.	.	8c\)	.	.	.	.	.
4r	.	4r	.	(>8B\L	e-	.	.	.	.
.	.	.	.	8c\J)	.	.	.	.	.
!LO:LB:g=original	!	!	!	!	!	!	!	!	!
=34	=34	=34	=34	=34	=34	=34	=34	=34	=34
2D\	Ky-	4A\	e-	(>4c\	-lei-	.	2.r	.	.
.	.	4F#\	-le-	4d\)	.	.	.	.	.
4FF#/	-ri-	4D\	-i-	4c\	-son,	.	.	.	.
=35	=35	=35	=35	=35	=35	=35	=35	=35	=35
4GG/	-e	(>8E\L	-son	4.c\	Ky-	.	2.r	.	.
.	.	8F#\J	.	.	.	.	.	.	.
4r	.	4G\)	.	.	.	.	.	.	.
.	.	.	.	8B\	-ri-	.	.	.	.
4r	.	4r	.	(<8A/L	-e	.	.	.	.
.	.	.	.	8B/J)	.	.	.	.	.
!	!	!LO:LB:g=original	!	!	!	!	!	!	!
=36	=36	=36	=36	=36	=36	=36	=36	=36	=36
8.C/	Ky-	8.G\	Ky-	8.c\	Ky-	.	8.e\	Ky-	.
16C/	-ri-	16G\	-ri-	16c\	-ri-	.	16e\	-ri-	.
4BB/	-e	4G\	-e	4d\	-e	.	4g\	-e	.
!LO:N:vis=8.	!	!	!	!	!	!	!	!	!
8r	.	8r	.	8r	.	.	8r	.	.
8BB/	e-	8G\	e-	8G/	e-	.	8d\	e-	.
=37	=37	=37	=37	=37	=37	=37	=37	=37	=37
4D\	-lei-	4F#\	-lei-	4A/	-lei-	.	4c\	-lei-	.
4E\	-son	4G\	-son,	4B\	-son	.	4B\	-son	.
4r	.	4r	.	4r	.	.	4r	.	.
!	!	!	!	!LO:LB:g=original	!	!	!LO:LB:g=original	!	!
=38	=38	=38	=38	=38	=38	=38	=38	=38	=38
8.C/	Ky-	8.G\	Ky-	8.c\	Ky-	.	8.e\	Ky-	.
16C/	-ri-	16G\	-ri-	16c\	-ri-	.	16e\	-ri-	.
4AA/	-e	4A\	-e	4c\	-e	.	4f#\	-e	.
8r	.	8r	.	8r	.	.	8r	.	.
8C/	e-	8E\	e-	8A/	e-	.	8e\	e-	.
=39	=39	=39	=39	=39	=39	=39	=39	=39	=39
2.BB/	-lei-	2.F#\	-lei-	(>4A/	-lei-	.	2.d#X\	-lei-	.
.	.	.	.	4c\	.	.	.	.	.
.	.	.	.	8B\L	.	.	.	.	.
.	.	.	.	8A\J)	.	.	.	.	.
=40	=40	=40	=40	=40	=40	=40	=40	=40	=40
2.C/	-son	2.E\	-son,	2.G/	-son	.	2.e\	-son,	.
=41	=41	=41	=41	=41	=41	=41	=41	=41	=41
(>4E\	Ky-	2G\	Ky-	(>4c\	Ky-	.	(>4c\	Ky-	.
4D\)	.	.	.	4B\)	.	.	4dn\)	.	.
4C/	-ri-	4G\	-ri-	4G/	-ri-	.	4e\	-ri-	.
!LO:LB:g=original	!	!	!	!	!	!	!	!	!
=42	=42	=42	=42	=42	=42	=42	=42	=42	=42
2D\	-e	4G\	-e	(<4G/	-e	.	2A/	-e	.
.	.	(>4F#\	e-	4F#/)	.	.	.	.	.
4GG/	e-	4Fn\)	.	4G/	e-	.	4B\	e-	.
=43	=43	=43	=43	=43	=43	=43	=43	=43	=43
(<2AA/	-lei-	2E\	-le-	(<4E/	-lei-	.	2c\	-lei-	.
.	.	.	.	4A/	.	.	.	.	.
4D\)	.	4D\	-i-	4F#/)	.	.	4A/	.	.
!	!	!LO:LB:g=original	!	!	!	!	!	!	!
=44	=44	=44	=44	=44	=44	=44	=44	=44	=44
2GG/	-son,	2G\	-son	2G/	-son	.	2B\	-son,	.
4r	.	4r	.	4r	.	.	4r	.	.
=45	=45	=45	=45	=45	=45	=45	=45	=45	=45
!	!	!	!	!	!	!LO:DY:a:rj	!	!	!LO:DY:a:rj
2D\	Ky-	2F#\	Ky-	2A/	Ky-	pp	(>4c\	Ky-	pp
.	.	.	.	.	.	.	4d\)	.	.
4D\	-ri-	4F#\	-ri-	4A/	-ri-	.	4A/	-ri-	.
=46	=46	=46	=46	=46	=46	=46	=46	=46	=46
2GG/	-e	2G\	-e	2G/	-e	.	2B\	-e	.
4GG/	e-	4BB/	e-	4G/	e-	.	4G/	e-	.
=47	=47	=47	=47	=47	=47	=47	=47	=47	=47
!	!	!	!	!	!	!	!LO:TX:a:t=P:problem=tryl dopisany ołówkiem	!	!
2.D\	-lei-	2.D\	-lei-	(<4G/	-lei-	.	4AT>/	-lei-	.
.	.	.	.	4E/	.	.	2A/	.	.
.	.	.	.	4F#/)	.	.	.	.	.
=48	=48	=48	=48	=48	=48	=48	=48	=48	=48
4GG/	-son	4BB/	-son	4G/	-son,	.	4G/	-son	.
4r	.	4r	.	4r	.	.	4r	.	.
4GG/	e-	4BB/	e-	4D/	e-	.	4G/	e-	.
=49	=49	=49	=49	=49	=49	=49	=49	=49	=49
2.C/	-lei-	2.C/	-lei-	2.E/	-lei-	.	2.G/	-lei-	.
=50	=50	=50	=50	=50	=50	=50	=50	=50	=50
2.GG/	-son.	2.BB/	-son.	2D/	-[son.]	.	2G/	-[son.]	.
!	!	!	!	!LO:TX:t=P:problem=ucięty takt	!	!	!LO:TX:t=P:problem=ucięty takt	!	!
.	.	.	.	4ryy	.	.	4ryy	.	.
==	==	==	==	==	==	==	==	==	==
*-	*-	*-	*-	*-	*-	*-	*-	*-	*-
!!!system-decoration: [(s1,s2,s3,s4)]
!!!RDF**kern: > = above
!!!RDF**kern: < = below
!!!EED: Mateusz Mrugas
!!!EEV: 2021-01-31
!!!ENC: Marcin Jachim
!!!END: 2021-01-23
